src/assets/icons/weeks,fancy,32.svg

<svg width="48" height="48" viewBox="0 0 48 48" fill="none" xmlns="http://www.w3.org/2000/svg">
<rect opacity="0.2" x="4" y="6" width="40" height="40" rx="4" fill="black"/>
<path d="M15.1307 41.2784C19.7045 41.2784 22.9759 38.7628 22.9659 35.2827C22.9759 32.7472 21.3651 30.9375 18.3722 30.5597V30.4006C20.6491 29.9929 22.2202 28.3821 22.2102 26.0952C22.2202 22.8835 19.4062 20.358 15.1903 20.358C11.0142 20.358 7.87216 22.804 7.8125 26.3239H11.9389C11.9886 24.7727 13.4105 23.7685 15.1705 23.7685C16.9105 23.7685 18.0739 24.8224 18.0639 26.3537C18.0739 27.9545 16.7116 29.0384 14.7528 29.0384H12.8537V32.2003H14.7528C17.0597 32.2003 18.5014 33.3537 18.4915 34.9943C18.5014 36.6151 17.1094 37.7287 15.1406 37.7287C13.2415 37.7287 11.8196 36.7344 11.7401 35.2429H7.40483C7.47443 38.8026 10.6562 41.2784 15.1307 41.2784ZM26.0607 41H40.5778V37.4801H32.0266V37.3409L34.9996 34.4276C39.1857 30.6094 40.3093 28.7003 40.3093 26.3835C40.3093 22.8537 37.4258 20.358 33.0607 20.358C28.7852 20.358 25.8519 22.9134 25.8619 26.9105H29.9485C29.9386 24.9616 31.1715 23.7685 33.0309 23.7685C34.8207 23.7685 36.1531 24.8821 36.1531 26.6719C36.1531 28.2926 35.1587 29.4062 33.3093 31.1861L26.0607 37.8977V41Z" fill="black"/>
<g opacity="0.4">
<path d="M10 4C10 2.89543 10.8954 2 12 2C13.1046 2 14 2.89543 14 4V8C14 9.10457 13.1046 10 12 10C10.8954 10 10 9.10457 10 8V4Z" fill="black"/>
<path d="M34 4C34 2.89543 34.8954 2 36 2C37.1046 2 38 2.89543 38 4V8C38 9.10457 37.1046 10 36 10C34.8954 10 34 9.10457 34 8V4Z" fill="black"/>
</g>
<path fill-rule="evenodd" clip-rule="evenodd" d="M10 6.00869C7.52043 6.04456 6.11466 6.22849 5.17157 7.17157C4 8.34315 4 10.2288 4 14V16H44V14C44 10.2288 44 8.34315 42.8284 7.17157C41.8853 6.22849 40.4796 6.04456 38 6.00869V8C38 9.10457 37.1046 10 36 10C34.8954 10 34 9.10457 34 8V6H14V8C14 9.10457 13.1046 10 12 10C10.8954 10 10 9.10457 10 8V6.00869Z" fill="black"/>
</svg>

<svg xmlns="http://www.w3.org/2000/svg" width="48" height="48" fill="none" viewBox="0 0 48 48">
  <rect width="40" height="40" x="4" y="6" fill="#000" opacity=".2" rx="4"/>
  <path fill="#000" d="M15.13 41.278c4.574 0 7.846-2.515 7.836-5.995.01-2.536-1.6-4.346-4.594-4.723v-.16c2.277-.407 3.848-2.018 3.838-4.305.01-3.211-2.804-5.737-7.02-5.737-4.176 0-7.318 2.446-7.377 5.966h4.126c.05-1.551 1.472-2.556 3.232-2.556 1.74 0 2.903 1.054 2.893 2.586.01 1.6-1.352 2.684-3.311 2.684h-1.9V32.2h1.9c2.307 0 3.748 1.154 3.738 2.794.01 1.621-1.382 2.735-3.35 2.735-1.9 0-3.321-.995-3.4-2.486H7.404c.07 3.56 3.251 6.035 7.726 6.035zM26.06 41h14.518v-3.52h-8.551v-.14L35 34.429c4.186-3.819 5.31-5.728 5.31-8.044 0-3.53-2.884-6.026-7.25-6.026-4.275 0-7.208 2.555-7.198 6.552h4.087c-.01-1.948 1.223-3.142 3.082-3.142 1.79 0 3.122 1.114 3.122 2.904 0 1.62-.994 2.734-2.844 4.514l-7.248 6.712V41z"/>
  <g opacity=".4">
    <path fill="#000" d="M10 4a2 2 0 114 0v4a2 2 0 11-4 0V4zM34 4a2 2 0 114 0v4a2 2 0 11-4 0V4z"/>
  </g>
  <path fill="#000" fill-rule="evenodd" d="M10 6.009c-2.48.036-3.885.22-4.828 1.163C4 8.343 4 10.229 4 14v2h40v-2c0-3.771 0-5.657-1.172-6.828-.943-.944-2.348-1.127-4.828-1.163V8a2 2 0 11-4 0V6H14v2a2 2 0 11-4 0V6.009z" clip-rule="evenodd"/>
</svg>
